X:22
T: Moorlough Mary, S. 74
N: I0521
O: Irland
S: O BOYLE, Sean: 25 Irish Folksongs, Dublin 1976]
R: Ballade, Liebeslied]
M: 6/4
L: 1/16
K: D
D2E2F4A2Bc | d8c2d2e6d2c2A2 | B6A2F4
D2E2F4A4 | d6B2c4B2A2F2G2A4 | B12
B2c2d4d4 | F6E2D4F4A4B4 | A8F4
B2c2d4d4 | F8E4F4D6D2 | D12
D2E2F4A4 | d8c4d4e2d2c4 | B6A2F4
D2E2F4A4 | d8c4B4F2G2A4 | B12
B2c2d4d4 | F6E2D4F4A4B4 | A8F4
B2c2d4d4 | F6D2E4F4D6D2 | D12

